!!!COM: Corelli, Arcangelo
!!!OTL: 
!!!ONM: Opus 3, No. 12
!!!OMV: 7
!!!CDT: 1653/2/17/-1713/1/8/
!!!OCY: Italia
**kern	**kern	**kern	**kern
*clefC	*clefC	*clefG	*clefG
*k[f#c#]	*k[f#c#]	*k[f#c#]	*k[f#c#]
*D:	*D:	*D:	*D:
*M6/8	*M6/8	*M6/8	*M6/8
=1	=1	=1	=1
2.r	2.r	2.r	8r
.	.	.	8cc#
.	.	.	8a
.	.	.	8dd
.	.	.	8b
.	.	.	8ee
=2	=2	=2	=2
2.r	2.r	2.r	8a
.	.	.	4.aa
.	.	.	4gg#
=3	=3	=3	=3
2.r	2.r	2r	8aa
.	.	.	8cc#
.	.	.	8a
.	.	.	8b
.	.	8g#	[4ee
.	.	8e	.
=4	=4	=4	=4
2.r	2.r	8a	8ee]
.	.	8f#	4dd#
.	.	8b	.
.	.	8e	8ee
.	.	[4ee	8b
.	.	.	8g#
=5	=5	=5	=5
2.r	2.r	8ee]	8a
.	.	4dd#	8f#
.	.	.	8b
.	.	8ee	8e
.	.	8gg#	[4ee
.	.	8ee	.
=6	=6	=6	=6
2r	2r	8aa	8ee]
.	.	8ff#	4.dd
.	.	8bb	.
.	.	8ee	.
8C#	8C#	[4aa	4cc#
8AA	8AA	.	.
=7	=7	=7	=7
8D	8D	8aa]	4.b
8BB	8BB	4gg#	.
8E	8E	.	.
8AA	8AA	8aa	8cc#
[4A	[4A	8ee	8cc#
.	.	8ff#	8dd
=8	=8	=8	=8
8A]	8A]	8dd	8b
4G#	4G#	8b	4.b
.	.	8ee	.
8A	8A	4.cc#	.
8C#	8C#	.	[4a
8AA	8AA	.	.
=9	=9	=9	=9
8E	8E	4.b	8a]
8G#	8G#	.	4.g#
8E	8E	.	.
8F#	8F#	4.a	.
8BB	8BB	.	4f#
8B	8B	.	.
=10	=10	=10	=10
8E	8E	4.g#	8r
4.e	4.e	.	8bb
.	.	.	8ee
.	.	4.f#	8aa
[4d	[4d	.	8ff#
.	.	.	8bb
=11	=11	=11	=11
8d]	8d]	8r	8ee
8c#	8c#	8ee	4.aa
8A	8A	8cc#	.
8B	8B	8dd	.
8e	8e	8b	4gg#
8E	8E	8ee	.
=12	=12	=12	=12
4F#	4F#	8a	8r
.	.	4.dd	8ff#
8F#	8F#	.	8dd
8G	8G	.	8ee
8A	8A	4cc#	8a
8AA	8AA	.	8aa
=13	=13	=13	=13
4D	4D	8dd	8ff#
.	.	8ee	8gg#
8AA	8AA	8cc#	4aa
4E	4E	4b	.
.	.	.	[4gg#
8E#	8E#	8b	.
=14	=14	=14	=14
8F#	8F#	4a	8gg#]
8A	8A	.	8cc#
8F#	8F#	8a	4ff#
8c#	8c#	4g#	.
8E	8E	.	8b
8C#	8C#	8g#	[8ee
=15	=15	=15	=15
8D	8D	4f#	8ee]
8F#	8F#	.	8a
8D	8D	8b	4dd
8E	8E	8g#	.
8A	8A	8e	8cc#
8C#	8C#	[8ee	8ee
=16	=16	=16	=16
4D	4D	8ee]	4ff#
.	.	8a	.
8D	8D	8dd	8ff#
4E	4E	4dd	8gg#
.	.	.	8ee
8F#	8F#	[8cc#	8aa
=17	=17	=17	=17
8D	8D	8cc#]	8a
8E	8E	4b	4g#
8EE	8EE	.	.
4AA	4AA	8a	4.a
.	.	8cc#	.
8A	8A	8a	.
=18	=18	=18	=18
4G#	4G#	8ee	2r
.	.	8gg#	.
8c#	8c#	8ee	.
8F#	8F#	4.aa	.
8B	8B	.	8ff#
8BB	8BB	.	8dd#
=19	=19	=19	=19
4E	4E	2r	8gg#
.	.	.	8ee
8E	8E	.	8gg#
4A	4A	.	8cc#
.	.	8ff#	[4aa
8A	8A	8aa	.
=20	=20	=20	=20
8B	8B	8dd#	8aa]
8c#	8c#	8ee	8gg#
8G#	8G#	8gg#	8bb
8A	8A	8cc#	4aa
8B	8B	8dd#	.
8c#	8c#	[8ee	[8gg#
=21	=21	=21	=21
8A	8A	8ee]	8gg#]
8B	8B	4dd#	4ff#
8BB	8BB	.	.
8E	8E	8ee	4.gg#
[4e	[4e	8g#	.
.	.	8e	.
=22	=22	=22	=22
8e]	8e]	8a	2r
4.d	4.d	8f#	.
.	.	8b	.
.	.	8e	.
8c#	8c#	[4a	8ee
8A	8A	.	8cc#
=23	=23	=23	=23
8B	8B	8a]	8dd
8e	8e	4g#	8b
8E	8E	.	8ee
8r	8r	8r	8a
8F#	8F#	8aa	[4dd
8D	8D	8ff#	.
=24	=24	=24	=24
8E	8E	8gg	8dd]
8A	8A	8ee	4cc#
8AA	8AA	8aa	.
8D	8D	8ff#	8r
[4d	[4d	8dd	8ff#
.	.	8f#	8dd
=25	=25	=25	=25
8d]	8d]	8g#	8ee
8c#	8c#	8ee	4.a
8A	8A	8cc#	.
8B	8B	4dd	.
8e	8e	.	8g#
8E	8E	[8b	8e
=26	=26	=26	=26
8A	8A	8b]	4.cc#
8C#	8C#	4.a	.
8AA	8AA	.	.
8E	8E	.	4.b
8E#	8E#	[4g#	.
8C#	8C#	.	.
=27	=27	=27	=27
8F#	8F#	8g#]	4a
8A	8A	4.f#	.
8F#	8F#	.	8cc#
8B	8B	.	8dd
8c#	8c#	4e#	4g#
8C#	8C#	.	.
=28	=28	=28	=28
4F#	4F#	4f#	8f#
.	.	.	4.dd
8F#	8F#	8a	.
8G#	8G#	8b	.
[4A	[4A	8ee	8cc#
.	.	8cc#	8a
=29	=29	=29	=29
8A]	8A]	8dd	8b
8G#	8G#	8b	8e
8E	8E	8g#	4ee
8F#	8F#	8a	.
8BB	8BB	8ff#	8dd
[8B	[8B	8dd	8b
=30	=30	=30	=30
8B]	8B]	8ee	8cc#
8A	8A	8cc#	8f#
8F#	8F#	8a	4ff#
8G#	8G#	8b	.
8C#	8C#	8gg#	8ee
[8c#	[8c#	8ee	8cc#
=31	=31	=31	=31
8c#]	8c#]	4ff#	4dd
8B	8B	.	.
8G#	8G#	4bb	8b
4A	4A	.	8cc#
.	.	[4aa	8ff#
8A	8A	.	8cc#
=32	=32	=32	=32
8B	8B	8aa]	8dd#
8c#	8c#	8gg#	4.ee
8A	8A	8ff#	.
8B	8B	8gg#	.
4BB	4BB	4ff#	4dd#
=33	=33	=33	=33
8E	8E	4ee	8ee
8C#	8C#	.	4.aa
8AA	8AA	2r	.
8D	8D	.	.
8BB	8BB	.	16bb
.	.	.	16aa
8E	8E	.	8gg#
=34	=34	=34	=34
4AA	4AA	8r	8ccc#
.	.	4.aa	8aa
8A	8A	.	8ccc#
4E	4E	.	[4.bb
.	.	16bb	.
.	.	16aa	.
8E	8E	8gg#	.
=35	=35	=35	=35
4AA	4AA	8ccc#	8bb]
.	.	8aa	16ccc#
.	.	.	16bb
8AA	8AA	8ccc#	8aa
4E	4E	4.bb	8aa
.	.	.	[4gg#
8E#	8E#	.	.
=36	=36	=36	=36
4F#	4F#	4.aa	8gg#]
.	.	.	16aa
.	.	.	16gg#
8AA	8AA	.	[8ff#
8BB	8BB	4.gg#	8ff#]
4C#	4C#	.	4ee#
=37	=37	=37	=37
8FF#	8FF#	4ff#	8ff#
8F#	8F#	.	4.dd
8G#	8G#	8r	.
4A	4A	4.ee	.
.	.	.	16ee
.	.	.	16dd
8A	8A	.	[8cc#
=38	=38	=38	=38
4B	4B	2dd	8cc#]
.	.	.	8f#
8G#	8G#	.	8b
4A	4A	.	8e
.	.	8cc#	[4a
8AA	8AA	8ff#	.
=39	=39	=39	=39
4E	4E	8b	8a]
.	.	4.ee	8g#
8C#	8C#	.	8cc#
4D	4D	.	8f#
.	.	8a	[4ff#
8D	8D	8dd	.
=40	=40	=40	=40
8E	8E	8g#	8ff#]
8A	8A	4.cc#	8ee
8c#	8c#	.	8a
4F#	4F#	.	[4.dd
.	.	8f#	.
8G#	8G#	8b	.
=41	=41	=41	=41
8A	8A	8e	8dd]
8C#	8C#	4.a	16ee
.	.	.	16dd
8AA	8AA	.	8cc#
8D	8D	.	8ff#
8E	8E	4g#	4b
8EE	8EE	.	.
=42	=42	=42	=42
4AA	4AA	8a	4a
.	.	4.ee	.
8C#	8C#	.	8r
4D	4D	.	[4.ff#
.	.	8a	.
8D	8D	8dd	.
=43	=43	=43	=43
8E	8E	8g#	8ff#]
8A	8A	4.cc#	8ee
8c#	8c#	.	8a
4F#	4F#	.	[4.dd
.	.	8f#	.
8G#	8G#	8b	.
=44	=44	=44	=44
8A	8A	8e	8dd]
8C#	8C#	4.a	16ee
.	.	.	16dd
8AA	8AA	.	8cc#
8D	8D	.	8ff#
8E	8E	4g#	4b
8EE	8EE	.	.
=45	=45	=45	=45
4AA	4AA	4a	4a
8C#	8C#	4a	8ee
8D	8D	.	8ff#
4E	4E	4g#	4b
=46	=46	=46	=46
4.AA	4.AA	4.a	4.a
4.r	4.r	4.r	4.r
==	==	==	==
*-	*-	*-	*-
!!!RWG: This file only contains pitch and duration data.
!!!RWG: Transposing instruments are not transposed.
!!!RWG: Durations of rests and tied notes may be interpreted.
!!!RWG: Key is interpreted using the Humdrum key tool.
!!!SCA: 
!!!YOR: Chrysander Edition
!!!AGN: chamber
!!!AFT: stage1
!!!ENC: F. Bennion
!!!END: 1997/04/15
!!!AST: baroque
!!!YEC: Copyright 1994, Center for Computer Assisted Research in the Humanities
!!!YEM: Rights to all derivative electronic formats reserved.
!!!YEM: Refer to licensing agreement for further details.
!!!YEN: United States of America
!!!EED: W.B. Hewlett
!!!KEY: 1375038511
!!!EMD: Converted from MuseData to Humdrum Aug 9, 1999, by Bret Aarden using muse2kern.
!!!VTS: 3552392343
